usr/share/icons/biglinux-icons-material/scalable/apps/texstudio.svg

<?xml version="1.0" encoding="UTF-8" standalone="no"?>
<svg
   width="24"
   height="24"
   viewBox="0 0 6.349875 6.349875"
   version="1.1"
   id="svg4"
   sodipodi:docname="texmaker.svg"
   inkscape:version="1.3 (0e150ed6c4, 2023-07-21)"
   xmlns:inkscape="http://www.inkscape.org/namespaces/inkscape"
   xmlns:sodipodi="http://sodipodi.sourceforge.net/DTD/sodipodi-0.dtd"
   xmlns="http://www.w3.org/2000/svg"
   xmlns:svg="http://www.w3.org/2000/svg">
  <defs
     id="defs4">
    <radialGradient
       fx="0"
       fy="0"
       cx="0"
       cy="0"
       r="1"
       gradientUnits="userSpaceOnUse"
       gradientTransform="matrix(0,16.5,-16.5,0,8.999651,0.749985)"
       spreadMethod="pad"
       id="radialGradient868-3">
      <stop
         style="stop-opacity:1;stop-color:#fafafa"
         offset="0"
         id="stop864-6" />
      <stop
         style="stop-opacity:1;stop-color:#c0c0c0"
         offset="1"
         id="stop866-7" />
    </radialGradient>
  </defs>
  <sodipodi:namedview
     id="namedview4"
     pagecolor="#ffffff"
     bordercolor="#000000"
     borderopacity="0.25"
     inkscape:showpageshadow="2"
     inkscape:pageopacity="0.0"
     inkscape:pagecheckerboard="0"
     inkscape:deskcolor="#d1d1d1"
     inkscape:zoom="3.1679688"
     inkscape:cx="-70.392108"
     inkscape:cy="-5.2083847"
     inkscape:window-width="2560"
     inkscape:window-height="998"
     inkscape:window-x="0"
     inkscape:window-y="0"
     inkscape:window-maximized="1"
     inkscape:current-layer="svg4" />
  <g
     id="g854"
     transform="matrix(0.35277082,0,0,0.35277082,-1.1965686e-4,-9.2712777e-6)">
    <g
       id="g856">
      <g
         id="g862">
        <path
           d="m 7.195,0.836 c 0.09,0 0.176,-0.012 0.258,-0.035 1.078,-0.071 2.156,-0.067 3.231,0.008 0.976,0.078 1.921,0.289 2.836,0.636 1.519,0.625 2.558,1.711 3.121,3.254 0.316,0.93 0.507,1.887 0.566,2.867 0.078,1.235 0.051,2.465 -0.086,3.696 -0.105,0.863 -0.328,1.691 -0.672,2.488 -0.637,1.383 -1.672,2.336 -3.101,2.859 C 12.191,17 11,17.207 9.773,17.227 8.398,17.301 7.035,17.195 5.684,16.918 3.203,16.367 1.668,14.852 1.09,12.375 0.844,11.262 0.73,10.133 0.754,8.992 0.727,7.781 0.855,6.582 1.141,5.402 1.75,3.09 3.219,1.656 5.547,1.102 6.09,0.969 6.641,0.879 7.195,0.836 Z"
           style="fill:url(#radialGradient868-3);fill-rule:evenodd;stroke:none"
           id="path870" />
      </g>
    </g>
  </g>
  <path
     d="m 4.9784399,2.3109335 0.2807512,0.2807513 c 0.0775,0.0775 0.0775,0.2030009 0,0.2807513 L 3.5751838,4.5559437 2.8736806,4.6959444 3.0139312,3.9946912 4.6976886,2.3109335 a 0.1980009,0.1980009 0 0 1 0.2807513,0 z"
     fill="#ffffff"
     opacity="0.9"
     style="stroke-width:0.250001;paint-order:stroke fill markers"
     id="path5" />
  <g
     id="g9"
     transform="translate(-0.0296197)">
    <path
       d="m 2.0139271,1.4551796 c -0.220001,0 -0.3967518,0.1772508 -0.3967518,0.3970018 v 2.6457621 c 0,0.220001 0.1770008,0.3967518 0.3967518,0.3967518 h 2.3812604 c 0.2200008,0 0.3967516,-0.1770008 0.3967516,-0.3967518 V 3.3394382 L 3.575434,4.5559437 2.8739306,4.6964444 3.0139312,3.9946912 4.6979386,2.3109335 a 0.1970009,0.1970009 0 0 1 0.094,-0.052 V 1.8521814 c 0,-0.220001 -0.1770006,-0.3970018 -0.3967516,-0.3970018 z"
       fill="#32a3d7"
       opacity="0.9"
       style="stroke-width:0.250001;paint-order:stroke fill markers"
       id="path6" />
    <path
       d="M 2.3446436,1.7198808 V 1.984462 H 1.8816265 v 0.066145 h 0.4630171 v 0.1379791 h 0.066145 V 2.0506073 H 4.5274379 V 1.984462 H 2.4107884 V 1.7198808 Z m 0.062044,0.5814834 V 2.7672255 H 2.3446436 V 2.9104962 H 1.8816265 v 0.066145 H 2.3446436 V 3.3735134 H 1.8816265 v 0.066145 H 2.3446436 V 3.8365305 H 1.8816265 v 0.066145 H 2.3446436 V 4.2995476 H 1.8816265 v 0.066145 h 0.4630171 v 0.2645812 h 0.066145 V 4.3656929 h 0.5291625 l 0.01323,-0.066145 H 2.4107894 V 3.9026758 h 0.695452 l 0.066145,-0.066145 H 2.4107884 V 3.4396587 h 1.1584691 l 0.066145,-0.066145 H 2.4107884 V 2.9766415 h 1.6216182 l 0.066145,-0.066145 H 2.4107884 V 2.5136244 h 0.264846 V 2.4474791 H 2.4107884 V 2.3013642 Z M 1.8816265,2.4474791 v 0.066145 h 0.3758378 v -0.066145 z m 1.1815534,0 v 0.066145 h 0.2692115 l 0.028442,-0.041672 -0.01667,-0.024474 z m 0.4937748,0 -0.016668,0.024474 0.028442,0.041671 h 0.9266952 l 0.032013,-0.032014 v -0.034131 z m 0.7380486,1.3890514 -0.066145,0.066145 h 0.2985799 v -0.066145 z m -0.4630171,0.4630171 -0.066145,0.066145 h 0.761597 v -0.066145 z"
       fill="#ffffff"
       opacity="0.1"
       style="stroke-width:0.0661453;paint-order:stroke fill markers"
       id="path7" />
    <g
       fill="#ffffff"
       opacity="0.35"
       stroke-linecap="round"
       stroke-linejoin="round"
       stroke-width="0.529"
       style="paint-order:stroke fill markers"
       aria-label="TEX"
       id="g8"
       transform="matrix(0.25000114,0,0,0.25000114,1.2201735,1.0584278)">
      <path
         d="M 3.38,4.52 H 5.513 V 4.972 H 4.746 V 6.835 H 4.149 V 4.972 H 3.38 Z m 2.442,0 h 1.61 V 4.972 H 6.42 v 0.43 H 7.373 V 5.854 H 6.42 v 0.53 H 7.468 V 6.835 H 5.822 Z M 9.28,5.654 10.084,6.835 H 9.462 L 8.921,6.045 8.384,6.835 H 7.76 L 8.563,5.654 7.79,4.52 H 8.413 L 8.92,5.265 9.425,4.52 h 0.627 z"
         id="path8" />
    </g>
  </g>
</svg>

<svg xmlns="http://www.w3.org/2000/svg" width="24" height="24" viewBox="0 0 6.35 6.35"><defs><radialGradient id="a" cx="0" cy="0" r="1" fx="0" fy="0" gradientTransform="matrix(0 16.5 -16.5 0 9 .75)" gradientUnits="userSpaceOnUse" spreadMethod="pad"><stop offset="0" style="stop-opacity:1;stop-color:#fafafa"/><stop offset="1" style="stop-opacity:1;stop-color:silver"/></radialGradient></defs><path d="M7.195.836c.09 0 .176-.012.258-.035a23.86 23.86 0 0 1 3.231.008 10.26 10.26 0 0 1 2.836.636c1.519.625 2.558 1.711 3.121 3.254.316.93.507 1.887.566 2.867a21.227 21.227 0 0 1-.086 3.696 8.976 8.976 0 0 1-.672 2.488c-.637 1.383-1.672 2.336-3.101 2.859a11.693 11.693 0 0 1-3.575.618 15.998 15.998 0 0 1-4.089-.309c-2.481-.551-4.016-2.066-4.594-4.543a14.244 14.244 0 0 1-.336-3.383c-.027-1.211.101-2.41.387-3.59.609-2.312 2.078-3.746 4.406-4.3A10.27 10.27 0 0 1 7.195.836Z" style="fill:url(#a);fill-rule:evenodd;stroke:none" transform="scale(.35277)"/><path fill="#fff" d="m4.978 2.31.281.282a.199.199 0 0 1 0 .28L3.575 4.556l-.701.14.14-.701L4.698 2.31a.198.198 0 0 1 .28 0z" opacity=".9" style="stroke-width:.250001;paint-order:stroke fill markers"/><path fill="#32a3d7" d="M2.014 1.455a.396.396 0 0 0-.397.397v2.646c0 .22.177.397.397.397h2.381c.22 0 .397-.177.397-.397V3.339L3.575 4.556l-.701.14.14-.701L4.698 2.31a.197.197 0 0 1 .094-.052v-.407a.396.396 0 0 0-.397-.397z" opacity=".9" style="stroke-width:.250001;paint-order:stroke fill markers" transform="translate(-.03)"/><path fill="#fff" d="M2.345 1.72v.264h-.463v.067h.463v.138h.066V2.05h2.116v-.067H2.411V1.72Zm.062.581v.466h-.062v.143h-.463v.067h.463v.397h-.463v.066h.463v.397h-.463v.066h.463V4.3h-.463v.066h.463v.264h.066v-.264h.529l.013-.066h-.542v-.397h.695l.066-.066h-.761V3.44h1.158l.066-.066H2.411v-.397h1.621L4.1 2.91H2.41v-.396h.265v-.067H2.41v-.146Zm-.525.146v.067h.375v-.067zm1.181 0v.067h.27l.028-.042-.017-.025zm.494 0-.017.025.029.042h.926l.032-.032v-.035zm.738 1.39-.066.066h.298v-.066zm-.463.463-.066.066h.761V4.3z" opacity=".1" style="stroke-width:.0661453;paint-order:stroke fill markers" transform="translate(-.03)"/><path fill="#fff" stroke-linecap="round" stroke-linejoin="round" stroke-width=".529" d="M3.38 4.52h2.133v.452h-.767v1.863h-.597V4.972H3.38Zm2.442 0h1.61v.452H6.42v.43h.953v.452H6.42v.53h1.048v.451H5.822ZM9.28 5.654l.804 1.181h-.622l-.541-.79-.537.79H7.76l.803-1.181L7.79 4.52h.623l.507.745.505-.745h.627z" aria-label="TEX" opacity=".35" style="paint-order:stroke fill markers" transform="matrix(.25 0 0 .25 1.19 1.058)"/></svg>
